X:18
T:O'Carolan's Welcome
R:carolan
C:Turlough O'Carolan (1670-1738)
Z:id:hn-carolan-18
M:3/4
L:1/8
K:Em
GF | E2 G>A B2 | E2 GA B2 | AB AG FE | D/E/F D2 B,2 |
[1 G3 F E2 | A3 G F2 | GB B,2 D2 | E4 :|
[2 d3 c B2 | e3 d BA | G/A/B AG FG | E4 ||
GA | B2 e>f g2 | B2 ef g2 | gf ed ef | g2 B2 B2 |
c2 ec BA | B2 dB AG | A2 B2 d2 | e4 e2 |
ed Bd e2 | dB AB d2 | BA GA BG | A2 F2 D2 |
G3 F E2 | A3 G F2 | GB B,2 D2 | E4 ||
<end>
<start>
